!!!OTL: "Das Wunder" ZWISCHEN BRIX UND KOMOTHAU
!!!ARE: Europa, Mitteleuropa, Deutschland, Boehmen
!!!SCT: Z1357
!!!YEM: Copyright 1995, estate of Helmut Schaffrath.
**kern
*ICvox
*Ivox
*M2/4
*k[]
*C:
=1
{8cc
8g
8g
8g
=2
8.g
16f
8e}
{8g
=3
8a
8b
8cc
8a
=4
4a
4g}
=5
{8cc
8g
8g
8g
=6
8.g
16f
8e}
{8g
=7
8a
8g
8f
8e
=8
4e
4d}
=9
{8g
8g
4g
=10
8cc
8cc
4cc}
=11
{8a
16dd
16dd
8cc
8b
=12
4b
4cc}
==
!!!AGN: Kinder - Lied
!!!ONB: ESAC (Essen Associative Code) Database: ZUCCAL
!!!AMT: simple duple
!!!AIN: vox
!!!EED: Helmut Schaffrath
!!!EEV: 1.0
*-
